src/assets/icons/Log.svg

<svg width="24" height="24" viewBox="0 0 24 24" fill="none" xmlns="http://www.w3.org/2000/svg">
<path fill-rule="evenodd" clip-rule="evenodd" d="M2 12C2 11.4477 2.44772 11 3 11H11C11.5523 11 12 11.4477 12 12C12 12.5523 11.5523 13 11 13H3C2.44772 13 2 12.5523 2 12Z" fill="white"/>
<path fill-rule="evenodd" clip-rule="evenodd" d="M2 6C2 5.44772 2.44772 5 3 5H16C16.5523 5 17 5.44772 17 6C17 6.55228 16.5523 7 16 7H3C2.44772 7 2 6.55228 2 6Z" fill="white"/>
<path fill-rule="evenodd" clip-rule="evenodd" d="M2 18C2 17.4477 2.44772 17 3 17H16C16.5523 17 17 17.4477 17 18C17 18.5523 16.5523 19 16 19H3C2.44772 19 2 18.5523 2 18Z" fill="white"/>
<path fill-rule="evenodd" clip-rule="evenodd" d="M14 12C14 11.4477 14.4477 11 15 11H21C21.5523 11 22 11.4477 22 12C22 12.5523 21.5523 13 21 13H15C14.4477 13 14 12.5523 14 12Z" fill="white"/>
</svg>

<svg xmlns="http://www.w3.org/2000/svg" width="24" height="24" fill="none"><path fill="#fff" fill-rule="evenodd" d="M2 12a1 1 0 0 1 1-1h8a1 1 0 1 1 0 2H3a1 1 0 0 1-1-1Zm0-6a1 1 0 0 1 1-1h13a1 1 0 1 1 0 2H3a1 1 0 0 1-1-1Zm0 12a1 1 0 0 1 1-1h13a1 1 0 1 1 0 2H3a1 1 0 0 1-1-1Zm12-6a1 1 0 0 1 1-1h6a1 1 0 1 1 0 2h-6a1 1 0 0 1-1-1Z" clip-rule="evenodd"/></svg>
